svgs/sharp-solid/hexagon-plus.svg

<svg xmlns="http://www.w3.org/2000/svg" viewBox="0 0 512 512"><!--! Font Awesome Pro 6.6.0 by @fontawesome - https://fontawesome.com License - https://fontawesome.com/license (Commercial License) Copyright 2024 Fonticons, Inc. --><path d="M0 256L128 32l256 0L512 256 384 480l-256 0L0 256zM232 368l48 0 0-24 0-64 64 0 24 0 0-48-24 0-64 0 0-64 0-24-48 0 0 24 0 64-64 0-24 0 0 48 24 0 64 0 0 64 0 24z"/></svg>

<svg xmlns="http://www.w3.org/2000/svg" viewBox="0 0 512 512"><!--! Font Awesome Pro 6.4.2 by @fontawesome - https://fontawesome.com License - https://fontawesome.com/license (Commercial License) Copyright 2023 Fonticons, Inc. --><path d="M0 256L128 32H384L512 256 384 480H128L0 256zM232 368h48V344 280h64 24V232H344 280V168 144H232v24 64H168 144v48h24 64v64 24z"/></svg>
